!!!OTL: Deck the Halls
!!!COM: Unknown
!!!ODT: 1784 (first published with Welsh words)
!!!YOR: The Christmas Fake Book, p. 29
!!!YOY: 1990
!!!AST: Christmas song
!!!YEC: Brian Luke, 2001
**kern	**harm
*k[b-e-a-]	*k[b-e-a-]
*M4/4	*M4/4
*E-:	*E-:
*>A	*>A
=1	=1
4.b-	I
8a-	.
4g	.
4f	V
=2	=2
4e-	vi
4f	V
4g	I
4e-	.
=3	=3
8f	V
8g	.
8a-	.
8f	.
4.g	Ic
8f	iib
=4	=4
4e-	Ic
4d	V
2e-	I;
*>A	*>A
=5	=5
4.b-	I
8a-	.
4g	.
4f	V
=6	=6
4e-	vi
4f	V
4g	I
4e-	.
=7	=7
8f	V
8g	.
8a-	.
8f	.
4.g	Ic
8f	iib
=8	=8
4e-	Ic
4d	V
2e-	I;
*>B	*>B
=9	=9
4.f	V
8g	.
4a-	.
4f	.
=10	=10
4.g	I
8a-	.
4b-	.
4f	Vb
=11	=11
8g	I
8a	.
4b-	Vb
8cc	vi
8dd	.
4ee-	.
=12	=12
4dd	Vc
4cc	V7/V
2b-	V;
*>A'	*>A'
=13	=13
4.b-	I
8a-	.
4g	.
4f	V
=14	=14
4e-	vi
4f	V
4g	I
4e-	.
=15	=15
8cc	IV
8cc	.
8cc	.
8cc	.
4.b-	Ib
8a-	iib
=16	=16
4g	Ic
4f	V
2e-	I;
*-	*-
